X:1
T:Title
%%score 1 { ( 2 4 ) | ( 3 5 ) }
L:1/8
Q:1/4=120
M:4/4
K:Gmin
V:1 treble nm="Voce" snm="V."
V:2 treble nm="Organo" snm="O."
V:4 treble 
V:3 bass 
V:5 bass 
V:1
!mp! (DA | G3 A BAGF | F2 CF D2) (DA |!<(! B3 d cBAB | c2 cd B4)!<)! |!f! (d2 dB GcBA) | %6
w: Mio Si-|gno- re non pos- sie- do^u-|ma- ne vir- tù, so- lo^un|cuo- re che mi fa sen-|ti- re per- chè|tu- to è nien- te nien- te^è|
w: Io sor-|ri- do men- tre sen- to|che par- ti- rò per sa-|li- re do- ve splen- de|so- lo l'a- mor||
w: E' la|for- za del- la fe- de|che vi- ve^in me, la sa-|pien- za di chi sa sof-|fri- re per Te.||
 (d2 dB GcBA | (GF) G4)!mf! (GA | BdcB (cB)A!>(!G | G2 FE D4)!>)! | %10
w: tut- to è nien- te nien- te^è|tut- * to. E cam-|mi- no sul- la- vi- * a dei|car- * * ri,-|
w: ||||
w: ||||
!p!!<(! (D=E^FA!<)! B!>(!G=F_E!>)! | D4-) !fermata!D2 x2 |] %12
w: do- ve sen- to che Ge- sù^è con|me _|
w: ||
w: ||
V:2
!mp!"^Calmo" (DA | G3 A BAGF | F2 CF D2) (DA | B3 d cBAB | c2 cd B4) |!f! (d2 dB GcBA) | %6
 (d2 dB GcBA | G F G4)!mf! (GA | B dcB cBAG | G2 FE D4) |!p!!<(! (D =E^FA!<)! B G =F _E | %11
 D4-) !fermata!D2 x2 |] %12
V:3
 z2 | G,,4 E,,4 | F,,2 A,,2 G,,3 F,, | E,,2 E,2 F,4 | C,4!<(! E,4!<)! | G,, A,, B,,2 C,4 | %6
 G,, A,, B,,2 C,2 F,2 | G,8 | C2 G,2- G,2 B,2 | C,4 G,,A,,B,,C, | C,4!>(! B,,2 C,2!>)! | D,6 x2 |] %12
V:4
 x2 | D8 | C4- C2 B,C | D!<(!EFG AG F2!<)! | G4- GFED | D2 GF E4 | D2 GF E2 F2 | E8 | =E4 _E4 | %9
 E2 C4!>)!!>(! B,A, | A,2 D4 C2- | CB,A,G, A,2 x2 |] %12
V:5
 x2 | B,A,G,F, G,2 B,2 | A,2 F,2 G,4- | G,4 C4 | EDCB, B,4- | B,2 G,2 C2 G,A, | B,2 G,2 C4 | %7
 B,3 C _D4 | C,4 _E,4 | CG,A,G, G,4 | ^F,2 A,F, G,4- | G,2 =E,2 !fermata!^F,2 x2 |] %12

